X:12
T:Miss Sandys' Delight. THO5.012
M:2/4
L:1/8
B:Thompson's Complete Collection of 200 Favourite Dances Vol.5
F:https://www.libraryofdance.org/manuals/1780c-Thompson-Compleat-5.pdf
Z:vmp. Peter Dunk 2024
Q:1/4=100
K:A
E|A2 EA|B2 Ec|dc BA|G/A/B/G/ EE|A2 EA|B2 Ed|c/d/e/c/ AG|A3:|
|:d|c/d/e/f/ ed|c/d/e/f/ ed|cefg|a3e|agfe|dc B2|
dcBA|GFED|A2 EA|B2 Ed|c/d/e/c/ AG|A3:|
W:
W:Right hands across left hands back again ./.
W:Change sides and back again ./: Lesd down
W:the middle up again and cast off :/. Allemand
W:with your Partner and lead outsides :/:

